!! Isochronous pitch passage.
!! Bass-line.
!! From Chopin, Etude Opus 25, No. 2, measure 1ff
!! Piano
!! 6/4 meter
**kern	**metpos
*M6/4	*M6/4
*tb4	*tb4
=1	=1
4En	1
4g	3
4c	3
4B-	2
4g	3
4c	3
=2	=2
4Fn	1
4a-	3
4c	3
4A-	2
4a-	3
4c	3
=3	=3
4G	1
4b-	3
4en	3
4d-	2
4b-	3
4e	3
=4	=4
4A-	1
4a-	3
4f	3
4c	2
4a-	3
4f	3
=5	=5
4BB-	1
4d-	3
4G	3
4F	2
4d-	3
4G	3
=6	=6
4C	1
4c	3
4A-	3
4F	2
4c	3
4A-	3
=7	=7
4C	1
4en	3
4B-	3
4G	2
4e	3
4B-	3
=8	=8
4F	1
4f	3
4C	3
4A-	2
4f	3
4d-	3
=9	=9
4En	1
4g	3
4c	3
4B-	2
4g	3
4c	3
=10	=10
4Fn	1
4a-	3
4c	3
4A-	2
4a-	3
4c	3
=11	=11
4G	1
4b-	3
4e-	3
4d-	2
4b-	3
4e-	3
=12	=12
4A-	1
4a-	3
4e-	3
4c-	2
4a-	3
4e-	3
=13	=13
4D-	1
4f	3
4B-	3
4A-	2
4f	3
4B-	3
=14	=14
4E-	1
4e-	3
4c	3
4A-	2
4e-	3
4c	3
=15	=15
4E-	1
4e-	3
4d-	3
4G	2
4e-	3
4d-	3
=16	=16
4AA-	1
4c	3
4E-	3
4F-	2
4d-	3
4E-	3
=17	=17
4AA-	1
4c	3
4E-	3
4F-	2
4d-	3
4E-	3
=18	=18
4AA-	1
4c	3
4E-	3
4C	2
4G	3
4B-	3
=19	=19
4en	1
4r	3
4r	3
4r	2
4r	3
4r	3
=20	=20
*-	*-
